svgs/sharp-regular/video-arrow-down-left.svg

<svg xmlns="http://www.w3.org/2000/svg" viewBox="0 0 576 512"><!--! Font Awesome Pro 6.6.0 by @fontawesome - https://fontawesome.com License - https://fontawesome.com/license (Commercial License) Copyright 2024 Fonticons, Inc. --><path d="M336 112l0 288L48 400l0-288 288 0zM48 64L0 64l0 48L0 400l0 48 48 0 288 0 48 0 0-48 0-48 0-192 0-48 0-48-48 0L48 64zM528 370.3l-112-56 0 53.7 112 56 48 24 0-53.7 0-276.7L576 64 528 88 416 144l0 53.7 112-56 0 228.7zM232 352l24 0 0-48-24 0-54.1 0L281 201l17-17L264 150.1l-17 17-103 103 0-54.1 0-24-48 0 0 24 0 112 0 24 24 0 112 0z"/></svg>

<svg xmlns="http://www.w3.org/2000/svg" viewBox="0 0 576 512"><!--! Font Awesome Pro 6.4.2 by @fontawesome - https://fontawesome.com License - https://fontawesome.com/license (Commercial License) Copyright 2023 Fonticons, Inc. --><path d="M336 112V400H48V112H336zM48 64H0v48V400v48H48 336h48V400 352 160 112 64H336 48zM528 370.3l-112-56V368l112 56 48 24V394.3 117.7 64L528 88 416 144v53.7l112-56V370.3zM232 352h24V304H232 177.9L281 201l17-17L264 150.1l-17 17-103 103V216 192H96v24V328v24h24H232z"/></svg>
